X:74
T:Prussian Soldier, The
M:6/8
L:1/8
B:Thompson's Compleat Collection of 200 Favourite Country Dances, vol. 2 (London, 1765)
Z:Transcribed and edited by Flynn Titford-Mock, 2007
Z:abc's:AK/Fiddler's Companion
K:G
GAB cAc | BGB AFD | GAB cAc | (B/c/d)B G3 :: Bdf gdB | gdB gdB |
Bdf gdB | gdB A3 | Bdg gdB | gdB gdB | (c/d/e)c (A/B/c)A | BGG G3 :|

